X:6235
T:St Anne's Reel
O:england
M:4/4
L:1/8
Q:220
C:French Canadian
S:Sue McLaughlin
K:D
fedf edcB|A2 FA DAFA|B2 GB EBGB|A2 FA DAFA|
fedf edcB|A2 FA DAFA|B2 ed cABc|dedc d2:|
de|f2 fe fdef|gagf g2 gf|edcB ABce|baab a2 ag|
f2 fe fdef|gagf g2 gf|edcB ABcd|eddc d2:|
